X:1
T:Poss'io morir di mala morte
T:Jacques Arcadelt c.1500-1568
T:Poss'io morir di mala morte
T:This work is licensed under CC0: creativecommons.org/publicdomain/zero/1.0/
T:Transcribed from 1539 Gardano edition of Arcadelt's Il primo libro di madrigali a 4 Original note values halved
T:This work is licensed under CC0: creativecommons.org/publicdomain/zero/1.0/
T:This work is licensed under CC0: creativecommons.org/publicdomain/zero/1.0/
T:This work is licensed under CC0: creativecommons.org/publicdomain/zero/1.0/
C:Jacques Arcadelt
C:c.1500-1568
Z:Anonymous
Z:This work is licensed under CC0: creativecommons.org/publicdomain/zero/1.0/
%%score [ 1 2 3 4 ]
L:1/8
M:4/4
K:C
V:1 treble nm="Piano" snm="Pno."
V:2 treble transpose=-12 nm="Piano" snm="Pno."
V:3 treble transpose=-12 nm="Piano" snm="Pno."
V:4 treble nm="Piano" snm="Pno."
V:1
"^Cantus" x8 |"^Instrument change" F8 | _B4 B4 | A6 G2 | F2 E2 D4 | C8 | z2 C2 D2 E2 | F6 E2 | %8
w: |Pos-|s'io mo-|rir di|ma- la mor-|te|s'io non ve|a- mo\_et|
 D2 D2 C4 | C2 C2 F4- | F2 F2 E2 E2 | D2 F2 F2 F2 | G2 A2 _B4- | B2 _B2 A2 A2 | G3 F G2 A2- | %15
w: non v'a- do-|ro quan- to|* si puo- t'a-|mar quan- to si|puo- t'a- mar|* ben col- t'al-|lo- * * *|
 AG F4 E2 | F4 z2 F2 | G3 F F2 E2 | F2 F2 G3 F | F2 E2 F4 | z8 | z8 | z2 G2 G2 G2 | A4 F4- | %24
w: |ro e|chi vo- le- te|voi e chi vo-|le- te voi|||ter- res- tr'id-|di- o|
 F2 F2 E2 E2 | F2 F2 D4 | C4 C4 | C2 C2 D2 D2 | C2 C2 z4 | z4 z2 C2 | F2 G2 A2 A2 | _B3 A G2 F2 | %32
w: _ ch'a- do- ri|e ch'io a-|mi s'io|non a- mo\_et a-|do- ro|s'io|non a- mo\_et a-|do- ro\_i vo- stri|
 E2 F4 E2 | F4 z2 C2 | F2 G2 A2 A2 | _B3 A G2 F2 | E2 F4 E2 | F8- | F8- | F8 |] %40
w: ra- * *|mi s'io|non a- mo\_et a-|do- ro\_i vo- stri|ra- * *|mi.|_||
V:2
"^Alto" x8 |"^Instrument change" C,8 | F,4 F,4 | F,6 E,2 | D,2 C,2 _B,,3 A,, | G,,8- | %6
w: |Pos-|s'io mo-|rir di|ma- la mor- *|te|
 G,,4 z2 C,2 | C,2 C,2 _B,,2 C,2 | F,,3 G,, A,,2 G,,2 | z2 A,,2 A,,3 _B,, | C,2 D,4 C,2 | %11
w: _ s'io|non v'a- mo\_et non|v'a- * do- ro|quan- to si|puo- t'a- mar|
 D,2 D,2 D,2 C,2 | D,2 D,2 z2 D,2 | D,2 D,2 E,2 D,2 | _B,,2 B,,2 G,,2 C,2- | C,2 _B,,2 C,4 | %16
w: * ben col- t'al-|lo- re quan-|to si puo- t'a-|mar ben col- t'al-|* lo- *|
 A,,4 z2 C,2 | D,3 D, C,2 _B,,2 | C,2 C,2 D,3 D, | C,2 G,,2 A,,3 A,, | G,,2 F,,2 G,,2 C,2 | %21
w: ro e|chi vo- le- te|voi e chi vo-|let' e chi vo-|le- te voi e|
 D,3 C, C,2 _B,,2 | C,2 E,2 E,2 E,2 | F,4 D,4- | D,2 D,2 C,2 C,2 | _B,,2 A,,4 G,,2 | A,,4 z2 A,,2 | %27
w: chi vo- le- te|coi ter- res- tr'id-|di- o|_ ch'a- do- ri|e ch'io a-|mi s'io|
 A,,2 A,,2 F,,2 G,,2 | A,,_B,,C,A,, B,,2 A,,2- | A,,2 G,,2 A,,2 C,2 | D,2 E,2 F,2 F,2 | %31
w: non a- mo\_et a-|* do- ro i vos- tri|* ra- mi s'io|non a- mo\_et a-|
 F,3 E, D,3 C, | _B,,2 C,2 D,2 C,2 | A,,4 z2 C,2 | D,2 E,2 F,2 F,2 | F,3 E, D,3 C, | %36
w: do- ro\_i vo- *|* stri ra- *|mi s'io|non a- mo\_et a-|do- ro\_i vo- *|
 _B,,2 C,2 D,2 C,2 | A,,4 z2 D,2 | D,2 C,2 D,4 | C,8 |] %40
w: * stri ra- *|mi i|vo- stri ra-|mi.|
V:3
"^Tenor" x8 |"^Instrument change" A,,8 | D,4 D,4 | C,6 C,2 | A,,3 G,, F,,4- | F,,2 E,,D,, E,,4 | %6
w: |Pos-|s'io mo-|rir di|ma- la mor-|* * * te|
 z2 E,,2 F,,2 G,,2 | A,,3 G,, F,,2 G,,2- | G,,F,, F,,4 E,,2 | F,,4 z2 F,,2 | F,,2 F,,2 G,,2 A,,2 | %11
w: s'io non ve'am-|o et non v'a-|* * do- *|ro quan-|to si puo- t'a-|
 _B,,6 A,,2 | G,,2 F,,4 _B,,2- | B,,A,, G,,4 F,,2 | G,,2 _B,,4 A,,G,, | F,,4 G,,4 | F,,4 z2 F,,2 | %17
w: mar ben|col- t'al- lo-||||ro e|
 _B,,3 B,, A,,2 G,,2 | F,,2 F,,2 _B,,3 B,, | A,,2 C,2 D,3 C, | C,2 _B,,2 C,2 G,,2 | %21
w: chi vo- le- te|voi e chi vo-|let' e chi vo-|le- te voi e|
 A,,3 A,, G,,2 F,,2 | G,,2 C,2 C,2 C,2 | C,4 _B,,4- | B,,2 _B,,2 G,,2 G,,2 | z2 F,,4 D,,2 | %26
w: chi vo- le- te|voi ter- res- tr'id-|di- o|_ ch'a- do- ri|e ch'io|
 F,,2 E,,2 z2 C,,2 | F,,3 G,, A,,2 _B,,2 | C,2 A,,2 D,2 C,2 | _B,,4 A,,2 A,,2 | _B,,2 C,2 C,2 C,2 | %31
w: a- mi s'io|non a- mo\_et a|do- ro\_i vos- tri|ra- mi s'io|non a- mo\_et- a-|
 D,3 C, _B,,3 A,, | G,,2 F,,2 G,,4 | F,,4 z2 A,,2 | _B,,2 C,2 C,2 C,2 | D,3 C, _B,,3 A,, | %36
w: do- ro\_i vo- *|* stri ra-|mi s'io|non a- mo\_et a-|do- ro\_i vo- *|
 G,,2 F,,2 G,,4 | F,,4 z2 _B,,2 | _B,,2 A,,2 B,,4 | A,,8 |] %40
w: * stri ra-|mi i|vo- stri ra-|mi.|
V:4
"^Bass" x8 |"^Instrument change" F,8 | _B,,4 B,,4 | F,6 C,2 | D,2 A,,2 _B,,4 | C,8- | C,4 z2 C,2 | %7
w: |Pos-|s'io mo-|rir di|ma- la mor-|te|_ s'io|
 F,3 E, D,2 C,2 | _B,,2 B,,2 C,4 | F,,8 | z8 | z8 | z4 _B,,4 | _B,,2 B,,2 C,2 D,2 | %14
w: non ve'am- o et|non ve'a- do-|ro|||quan-|to si puo- te'a-|
 _E,3 D, E,2 F,2 | D,4 C,4 | F,,8 | z8 | z8 | z2 C,2 F,3 F, | E,2 D,2 C,2 C,2 | F,3 F, E,2 D,2 | %22
w: mar ben colt' al-|lo- *|ro|||e chi vo-|le- te voi e|chi vo- le- te|
 C,2 C,2 C,2 C,2 | F,4 _B,,4- | B,,2 _B,,2 C,2 C,2 | D,2 D,2 _B,,4 | A,,8 | z8 | F,,4 _B,,2 C,2 | %29
w: voi ter- res- tr'id-|di- o|_ ch'a- do- ri|e ch'io a-|mi||s'io non a-|
 D,2 E,2 F,3 E, | D,2 C,2 F,4 | _B,,8 | z2 F,,2 _B,,2 C,2 | D,3 E, F,3 E, | D,2 C,2 F,4 | _B,,8 | %36
w: mo\_et a- do- ro\_i|vos- tri ra-|mi|s'io non a-|mo'et a- do- ro\_i|vo- stri ra-|mi|
 z2 F,,2 _B,,2 C,2 | D,3 E, F,2 _B,,2 | F,2 F,2 _B,,4 | F,8 |] %40
w: s'io non a-|mo\_et a- do- ro\_i|vos- tri ra-|mi.|

